public/images/svg/numbers/8_dark.svg

<svg width="220" height="281" viewBox="0 0 220 281" fill="none" xmlns="http://www.w3.org/2000/svg">
<mask id="mask0_507_1345" style="mask-type:alpha" maskUnits="userSpaceOnUse" x="1" y="0" width="193" height="281">
<path d="M156.707 135.215C181.569 150.087 194 171.754 194 200.215C194 225.087 185.286 244.703 167.857 259.062C150.684 273.421 127.232 280.6 97.5 280.6C67.512 280.6 43.9316 273.421 26.759 259.062C9.58632 244.703 1 225.087 1 200.215C1 171.754 13.3028 150.087 37.9084 135.215C19.1979 121.626 9.84263 103.036 9.84263 79.4463C9.84263 54.5745 18.1726 35.2155 34.8327 21.3693C51.749 7.52318 72.6381 0.600098 97.5 0.600098C122.362 0.600098 143.123 7.52318 159.783 21.3693C176.443 35.2155 184.773 54.5745 184.773 79.4463C184.773 103.292 175.418 121.882 156.707 135.215ZM122.49 59.0616C116.082 53.4206 107.752 50.6001 97.5 50.6001C87.2477 50.6001 78.9177 53.4206 72.51 59.0616C66.1023 64.7027 62.8984 72.395 62.8984 82.1386C62.8984 91.8822 66.1023 99.7027 72.51 105.6C78.9177 111.241 87.2477 114.062 97.5 114.062C107.752 114.062 116.082 111.241 122.49 105.6C128.898 99.7027 132.102 91.8822 132.102 82.1386C132.102 72.395 128.898 64.7027 122.49 59.0616ZM65.5896 220.985C73.7915 227.395 84.4283 230.6 97.5 230.6C110.572 230.6 121.08 227.395 129.026 220.985C137.228 214.318 141.329 205.087 141.329 193.292C141.329 181.754 137.228 172.78 129.026 166.369C121.08 159.703 110.572 156.369 97.5 156.369C84.4283 156.369 73.7915 159.703 65.5896 166.369C57.6441 172.78 53.6713 181.754 53.6713 193.292C53.6713 205.087 57.6441 214.318 65.5896 220.985Z" fill="white"/>
</mask>
<g mask="url(#mask0_507_1345)">
<circle opacity="0.3" cx="17" cy="251" r="70" fill="#36374A"/>
<circle opacity="0.3" cx="177" cy="31" r="70" fill="#36374A"/>
<g filter="url(#filter0_b_507_1345)">
<path d="M156.707 135.215C181.569 150.087 194 171.754 194 200.215C194 225.087 185.286 244.703 167.857 259.062C150.684 273.421 127.232 280.6 97.5 280.6C67.512 280.6 43.9316 273.421 26.759 259.062C9.58632 244.703 1 225.087 1 200.215C1 171.754 13.3028 150.087 37.9084 135.215C19.1979 121.626 9.84263 103.036 9.84263 79.4463C9.84263 54.5745 18.1726 35.2155 34.8327 21.3693C51.749 7.52318 72.6381 0.600098 97.5 0.600098C122.362 0.600098 143.123 7.52318 159.783 21.3693C176.443 35.2155 184.773 54.5745 184.773 79.4463C184.773 103.292 175.418 121.882 156.707 135.215ZM122.49 59.0616C116.082 53.4206 107.752 50.6001 97.5 50.6001C87.2477 50.6001 78.9177 53.4206 72.51 59.0616C66.1023 64.7027 62.8984 72.395 62.8984 82.1386C62.8984 91.8822 66.1023 99.7027 72.51 105.6C78.9177 111.241 87.2477 114.062 97.5 114.062C107.752 114.062 116.082 111.241 122.49 105.6C128.898 99.7027 132.102 91.8822 132.102 82.1386C132.102 72.395 128.898 64.7027 122.49 59.0616ZM65.5896 220.985C73.7915 227.395 84.4283 230.6 97.5 230.6C110.572 230.6 121.08 227.395 129.026 220.985C137.228 214.318 141.329 205.087 141.329 193.292C141.329 181.754 137.228 172.78 129.026 166.369C121.08 159.703 110.572 156.369 97.5 156.369C84.4283 156.369 73.7915 159.703 65.5896 166.369C57.6441 172.78 53.6713 181.754 53.6713 193.292C53.6713 205.087 57.6441 214.318 65.5896 220.985Z" fill="white" fill-opacity="0.06"/>
</g>
</g>
<defs>
<filter id="filter0_b_507_1345" x="-69" y="-69.3999" width="333" height="420" filterUnits="userSpaceOnUse" color-interpolation-filters="sRGB">
<feFlood flood-opacity="0" result="BackgroundImageFix"/>
<feGaussianBlur in="BackgroundImage" stdDeviation="35"/>
<feComposite in2="SourceAlpha" operator="in" result="effect1_backgroundBlur_507_1345"/>
<feBlend mode="normal" in="SourceGraphic" in2="effect1_backgroundBlur_507_1345" result="shape"/>
</filter>
</defs>
</svg>

<?xml version="1.0" encoding="utf-8"?>
<!-- Generator: Adobe Illustrator 22.1.0, SVG Export Plug-In . SVG Version: 6.00 Build 0)  -->
<svg version="1.1" id="Layer_1" xmlns="http://www.w3.org/2000/svg" xmlns:xlink="http://www.w3.org/1999/xlink" x="0px" y="0px"
	 viewBox="0 0 220 281" style="enable-background:new 0 0 220 281;" xml:space="preserve">
<style type="text/css">
	.st0{fill:#1B1A22;}
	.st1{fill:url(#SVGID_1_);fill-opacity:0.6;}
	.st2{fill:url(#SVGID_2_);fill-opacity:0.6;}
</style>
<path class="st0" d="M156.7,135.2c24.9,14.9,37.3,36.5,37.3,65c0,24.9-8.7,44.5-26.1,58.8c-17.2,14.4-40.6,21.5-70.4,21.5
	c-30,0-53.6-7.2-70.7-21.5C9.6,244.7,1,225.1,1,200.2c0-28.5,12.3-50.1,36.9-65C19.2,121.6,9.8,103,9.8,79.4
	c0-24.9,8.3-44.2,25-58.1C51.7,7.5,72.6,0.6,97.5,0.6c24.9,0,45.6,6.9,62.3,20.8c16.7,13.8,25,33.2,25,58.1
	C184.8,103.3,175.4,121.9,156.7,135.2z M122.5,59.1c-6.4-5.6-14.7-8.5-25-8.5c-10.3,0-18.6,2.8-25,8.5c-6.4,5.6-9.6,13.3-9.6,23.1
	s3.2,17.6,9.6,23.5c6.4,5.6,14.7,8.5,25,8.5c10.3,0,18.6-2.8,25-8.5c6.4-5.9,9.6-13.7,9.6-23.5S128.9,64.7,122.5,59.1z M65.6,221
	c8.2,6.4,18.8,9.6,31.9,9.6c13.1,0,23.6-3.2,31.5-9.6c8.2-6.7,12.3-15.9,12.3-27.7c0-11.5-4.1-20.5-12.3-26.9
	c-7.9-6.7-18.5-10-31.5-10c-13.1,0-23.7,3.3-31.9,10c-7.9,6.4-11.9,15.4-11.9,26.9C53.7,205.1,57.6,214.3,65.6,221z"/>
<radialGradient id="SVGID_1_" cx="-388.9067" cy="637.213" r="1" gradientTransform="matrix(138.4999 -140 -99.3085 -98.2444 117145.1875 8436.6719)" gradientUnits="userSpaceOnUse">
	<stop  offset="0" style="stop-color:#36374A"/>
	<stop  offset="1" style="stop-color:#1B1A22;stop-opacity:0"/>
	<stop  offset="1" style="stop-color:#36374A;stop-opacity:0"/>
</radialGradient>
<path class="st1" d="M156.7,135.2c24.9,14.9,37.3,36.5,37.3,65c0,24.9-8.7,44.5-26.1,58.8c-17.2,14.4-40.6,21.5-70.4,21.5
	c-30,0-53.6-7.2-70.7-21.5C9.6,244.7,1,225.1,1,200.2c0-28.5,12.3-50.1,36.9-65C19.2,121.6,9.8,103,9.8,79.4
	c0-24.9,8.3-44.2,25-58.1C51.7,7.5,72.6,0.6,97.5,0.6c24.9,0,45.6,6.9,62.3,20.8c16.7,13.8,25,33.2,25,58.1
	C184.8,103.3,175.4,121.9,156.7,135.2z M122.5,59.1c-6.4-5.6-14.7-8.5-25-8.5c-10.3,0-18.6,2.8-25,8.5c-6.4,5.6-9.6,13.3-9.6,23.1
	s3.2,17.6,9.6,23.5c6.4,5.6,14.7,8.5,25,8.5c10.3,0,18.6-2.8,25-8.5c6.4-5.9,9.6-13.7,9.6-23.5S128.9,64.7,122.5,59.1z M65.6,221
	c8.2,6.4,18.8,9.6,31.9,9.6c13.1,0,23.6-3.2,31.5-9.6c8.2-6.7,12.3-15.9,12.3-27.7c0-11.5-4.1-20.5-12.3-26.9
	c-7.9-6.7-18.5-10-31.5-10c-13.1,0-23.7,3.3-31.9,10c-7.9,6.4-11.9,15.4-11.9,26.9C53.7,205.1,57.6,214.3,65.6,221z"/>
<radialGradient id="SVGID_2_" cx="-389.2639" cy="646.3083" r="1" gradientTransform="matrix(-102.4999 96.4998 68.1869 72.4265 -83775.2578 -9244.9805)" gradientUnits="userSpaceOnUse">
	<stop  offset="0" style="stop-color:#36374A"/>
	<stop  offset="1" style="stop-color:#36374A;stop-opacity:0"/>
</radialGradient>
<path class="st2" d="M156.7,135.2c24.9,14.9,37.3,36.5,37.3,65c0,24.9-8.7,44.5-26.1,58.8c-17.2,14.4-40.6,21.5-70.4,21.5
	c-30,0-53.6-7.2-70.7-21.5C9.6,244.7,1,225.1,1,200.2c0-28.5,12.3-50.1,36.9-65C19.2,121.6,9.8,103,9.8,79.4
	c0-24.9,8.3-44.2,25-58.1C51.7,7.5,72.6,0.6,97.5,0.6c24.9,0,45.6,6.9,62.3,20.8c16.7,13.8,25,33.2,25,58.1
	C184.8,103.3,175.4,121.9,156.7,135.2z M122.5,59.1c-6.4-5.6-14.7-8.5-25-8.5c-10.3,0-18.6,2.8-25,8.5c-6.4,5.6-9.6,13.3-9.6,23.1
	s3.2,17.6,9.6,23.5c6.4,5.6,14.7,8.5,25,8.5c10.3,0,18.6-2.8,25-8.5c6.4-5.9,9.6-13.7,9.6-23.5S128.9,64.7,122.5,59.1z M65.6,221
	c8.2,6.4,18.8,9.6,31.9,9.6c13.1,0,23.6-3.2,31.5-9.6c8.2-6.7,12.3-15.9,12.3-27.7c0-11.5-4.1-20.5-12.3-26.9
	c-7.9-6.7-18.5-10-31.5-10c-13.1,0-23.7,3.3-31.9,10c-7.9,6.4-11.9,15.4-11.9,26.9C53.7,205.1,57.6,214.3,65.6,221z"/>
</svg>
